!!!OTL: 212a. Die Rabenmutter.
!!!ARE: Europa, Mitteleuropa, Deutschland, Brandenburg
!!!SCT: E0212
!!!TXL: @@DE
!!!YEM: Copyright 1995, estate of Helmut Schaffrath.
**kern	**text
*ICvox	*
*M2/4	*
*k[b-e-]	*
*B-:	*
!LO:TX:a:t=Sehr mäßig.	!
!LO:TX:a:t=Aus dem Brandenburgiſchen (Cotbus rc.).	!
{8f	Es
=1	=1
8.b-	trieb
16a	ein
8b-	Schä-
8cc	-fer
=2	=2
4dd	o-
4cc	-ben
=3	=3
4b-	rein,
8r}	.
{8cc	es
=4	=4
8dd	trieb
8cc	ein
8dd	Schä-
8ee-	-fer
=5	=5
4ff	o-
8ee-L	-ben
8ddJ	.
=6	=6
4dd;}	rein,
{4ff	er
=7	=7
8ee-	hört
8dd	ein
8cc	kleines
8b-	.
=8	=8
8ddL	Kind-
8ccJ	.
8b-L	-lein
8aJ	.
=9	=9
4b-	ſchrein,
8dd	Ach,
8b-	ach
=10	=10
4cc}	ei,
{4ff	er
=11	=11
8ee-	hört
8dd	ein
8cc	kleines
8b-	.
=12	=12
8ddL	Kind-
8ccJ	.
8b-L	-lein
8aJ	.
=13	=13
4b-	ſchrein.
8r}	.
==	==
!!!AGN: erzaehlendes Volks - Lied, Mahn -, Moral - Lied, Strafe; Rabenmutter
!!!ONB: ESAC (Essen Associative Code) Database: ERK1
!!!AMT: simple duple
!!!AIN: vox
!!!EED: Helmut Schaffrath
!!!EEV: 1.0
!!!GTL: Gottesgerichte und Hoellenstrafen (Mahnlieder)
!!!URL-scan: https://rosdok.uni-rostock.de/mcrviewer/recordIdentifier/rosdok_ppn745146120/iview2/phys_0696.iview2?x=269.77722830952484&y=2434.061888888944&scale=0.8175820371876612&rotation=0&layout=singlePageLayout
!!!ENC: Anna Maria Matuszewska
!!!EEV: 2024/06/12
*-	*-
